src/16/panel/remote-folder-sync-up.svg

<svg xmlns="http://www.w3.org/2000/svg" width="16" height="16" version="1.1" id="svg7"><defs id="defs3"><style id="current-color-scheme" type="text/css"></style></defs><path d="M2 1c-.554 0-1 .446-1 1v3c0 .554.446 1 1 1h5.2L8 5l.8 1H14c.554 0 1-.446 1-1V2c0-.554-.446-1-1-1H2z" id="rect23" display="inline" opacity=".5" fill="#dfdfdf" fill-opacity="1" stroke="none" stroke-width="1" stroke-linecap="round" stroke-linejoin="miter" stroke-miterlimit="4" stroke-dasharray="none" stroke-opacity="1" paint-order="stroke markers fill"/><path d="M8 3L7 5H1c-.554 0-1 .446-1 1v8c0 .554.446 1 1 1h14c.554 0 1-.446 1-1V4c0-.5-.5-1-1-1H8zm0 2l4 5h-2v3H6v-3H4l4-5z" id="path4-3" display="inline" fill="#dfdfdf" fill-opacity="1" stroke="none"/></svg>

<?xml version="1.0" encoding="UTF-8" standalone="no"?>
<svg
   xmlns:dc="http://purl.org/dc/elements/1.1/"
   xmlns:cc="http://creativecommons.org/ns#"
   xmlns:rdf="http://www.w3.org/1999/02/22-rdf-syntax-ns#"
   xmlns:svg="http://www.w3.org/2000/svg"
   xmlns="http://www.w3.org/2000/svg"
   xmlns:sodipodi="http://sodipodi.sourceforge.net/DTD/sodipodi-0.dtd"
   xmlns:inkscape="http://www.inkscape.org/namespaces/inkscape"
   width="16"
   height="16"
   version="1.1"
   id="svg7"
   sodipodi:docname="remote-folder-sync-up.svg"
   inkscape:version="0.92.4 (5da689c313, 2019-01-14)">
  <metadata
     id="metadata11">
    <rdf:RDF>
      <cc:Work
         rdf:about="">
        <dc:format>image/svg+xml</dc:format>
        <dc:type
           rdf:resource="http://purl.org/dc/dcmitype/StillImage" />
      </cc:Work>
    </rdf:RDF>
  </metadata>
  <sodipodi:namedview
     pagecolor="#ffffff"
     bordercolor="#666666"
     borderopacity="1"
     objecttolerance="10"
     gridtolerance="10"
     guidetolerance="10"
     inkscape:pageopacity="0"
     inkscape:pageshadow="2"
     inkscape:window-width="1366"
     inkscape:window-height="710"
     id="namedview9"
     showgrid="false"
     inkscape:zoom="29.5"
     inkscape:cx="7.875354"
     inkscape:cy="5.94566"
     inkscape:window-x="0"
     inkscape:window-y="28"
     inkscape:window-maximized="1"
     inkscape:current-layer="svg7" />
  <defs
     id="defs3">
    <style
       id="current-color-scheme"
       type="text/css">
   .ColorScheme-Text { color:#dfdfdf; } .ColorScheme-Highlight { color:#5294e2; }
  </style>
  </defs>
  <path
     style="display:inline;opacity:0.5;fill:#dfdfdf;fill-opacity:1;stroke:none;stroke-width:1;stroke-linecap:round;stroke-linejoin:miter;stroke-miterlimit:4;stroke-dasharray:none;stroke-opacity:1;paint-order:stroke markers fill;enable-background:new"
     d="M 2 1 C 1.446 1 1 1.446 1 2 L 1 5 C 1 5.554 1.446 6 2 6 L 7.1992188 6 L 8 5 L 8.8007812 6 L 14 6 C 14.554 6 15 5.554 15 5 L 15 2 C 15 1.446 14.554 1 14 1 L 2 1 z "
     id="rect23" />
  <path
     style="display:inline;fill:#dfdfdf;fill-opacity:1;stroke:none;enable-background:new"
     d="M 8 3 L 7 5 L 1 5 C 0.446 5 0 5.446 0 6 L 0 14 C 0 14.554 0.446 15 1 15 L 15 15 C 15.554 15 16 14.554 16 14 L 16 8 L 16 6 L 16 4 C 16 3.5 15.5 3 15 3 L 8 3 z M 8 5 L 12 10 L 10 10 L 10 13 L 6 13 L 6 10 L 4 10 L 8 5 z "
     id="path4-3" />
</svg>
